dist/assets/img/crown.svg

<svg width="322" height="283" viewBox="0 0 322 283" fill="none" xmlns="http://www.w3.org/2000/svg">
<g opacity="0.3" clip-path="url(#clip0_97_3021)">
<path d="M77.1015 159.085L175.023 102.55L190.501 137.877C194.979 148.098 205.004 154.772 216.162 154.96L101.92 220.917C107.336 211.16 106.569 199.142 99.9566 190.153L77.1015 159.085Z" fill="url(#paint0_linear_97_3021)"/>
<path d="M77.1015 159.085L175.023 102.55L190.501 137.877C194.979 148.098 205.004 154.772 216.162 154.96L101.92 220.917C107.336 211.16 106.569 199.142 99.9566 190.153L77.1015 159.085Z" fill="url(#paint1_linear_97_3021)" fill-opacity="0.4"/>
<path d="M77.1015 159.085L175.023 102.55L190.501 137.877C194.979 148.098 205.004 154.772 216.162 154.96L101.92 220.917C107.336 211.16 106.569 199.142 99.9566 190.153L77.1015 159.085Z" fill="url(#paint2_linear_97_3021)" fill-opacity="0.05"/>
<path d="M77.1015 159.085L175.023 102.55L190.501 137.877C194.979 148.098 205.004 154.772 216.162 154.96L101.92 220.917C107.336 211.16 106.569 199.142 99.9566 190.153L77.1015 159.085Z" fill="url(#paint3_linear_97_3021)" fill-opacity="0.2"/>
<path d="M226.677 161.937C225.651 157.148 221.212 153.848 216.343 154.369L169.023 159.433C153.166 161.13 138.763 169.446 129.365 182.33L101.319 220.777C98.4331 224.734 99.0713 230.229 102.705 233.511C113.621 243.371 120.289 250.638 131.624 263.22L144.95 278.012C150.821 284.018 160.035 285.276 167.337 281.071C167.343 281.067 167.349 281.064 167.355 281.06C167.361 281.057 167.367 281.053 167.373 281.049C175.206 276.516 178.607 266.99 175.399 258.56L156.716 209.228C154.485 203.365 156.731 196.526 162.183 193.378C167.634 190.231 174.68 191.706 178.642 196.569L212.023 237.415C217.719 244.408 227.67 246.226 235.512 241.709C235.518 241.706 235.525 241.702 235.531 241.699C235.537 241.695 235.543 241.692 235.549 241.688C242.842 237.467 246.359 228.858 244.093 220.771L237.946 201.834C232.718 185.727 229.758 176.32 226.677 161.937Z" fill="url(#paint4_linear_97_3021)"/>
<path d="M226.677 161.937C225.651 157.148 221.212 153.848 216.343 154.369L169.023 159.433C153.166 161.13 138.763 169.446 129.365 182.33L101.319 220.777C98.4331 224.734 99.0713 230.229 102.705 233.511C113.621 243.371 120.289 250.638 131.624 263.22L144.95 278.012C150.821 284.018 160.035 285.276 167.337 281.071C167.343 281.067 167.349 281.064 167.355 281.06C167.361 281.057 167.367 281.053 167.373 281.049C175.206 276.516 178.607 266.99 175.399 258.56L156.716 209.228C154.485 203.365 156.731 196.526 162.183 193.378C167.634 190.231 174.68 191.706 178.642 196.569L212.023 237.415C217.719 244.408 227.67 246.226 235.512 241.709C235.518 241.706 235.525 241.702 235.531 241.699C235.537 241.695 235.543 241.692 235.549 241.688C242.842 237.467 246.359 228.858 244.093 220.771L237.946 201.834C232.718 185.727 229.758 176.32 226.677 161.937Z" fill="url(#paint5_radial_97_3021)" fill-opacity="0.2"/>
<path d="M76.4203 99.1747C93.4401 97.0907 113.166 85.7023 123.48 72.0047C127.811 66.2543 133.152 61.4437 139.279 57.9061L139.284 57.9032C145.013 54.5959 151.428 52.4018 158.345 51.5933C188.56 48.0615 217.016 72.2965 222.359 105.887L222.368 105.886C222.662 109.154 222.927 112.454 223.226 115.748C223.691 120.856 220.152 125.537 215.08 126.299L155.177 135.308C139.491 137.667 125.279 145.872 115.393 158.277L77.6402 205.65C74.4438 209.661 68.6203 210.386 64.4296 207.429C61.7269 205.522 59.0019 203.643 56.3192 201.754L56.3241 201.748C29.9058 180.324 23.1454 143.564 41.3117 119.162C49.9184 107.602 62.5919 100.868 76.4203 99.1747Z" fill="url(#paint6_linear_97_3021)"/>
</g>
<defs>
<linearGradient id="paint0_linear_97_3021" x1="133.129" y1="143.058" x2="157.471" y2="185.218" gradientUnits="userSpaceOnUse">
<stop stop-color="#AAC8E3"/>
<stop offset="1" stop-color="#C8DBED"/>
</linearGradient>
<linearGradient id="paint1_linear_97_3021" x1="92.719" y1="189.276" x2="107.679" y2="180.639" gradientUnits="userSpaceOnUse">
<stop stop-color="#F1F7FA"/>
<stop offset="1" stop-color="#F0F7FA" stop-opacity="0"/>
</linearGradient>
<linearGradient id="paint2_linear_97_3021" x1="133.129" y1="143.058" x2="140.196" y2="155.298" gradientUnits="userSpaceOnUse">
<stop stop-color="#065099"/>
<stop offset="1" stop-color="#065099" stop-opacity="0"/>
</linearGradient>
<linearGradient id="paint3_linear_97_3021" x1="126.062" y1="130.818" x2="143.337" y2="160.738" gradientUnits="userSpaceOnUse">
<stop stop-color="#23578B"/>
<stop offset="1" stop-color="#23578B" stop-opacity="0"/>
</linearGradient>
<linearGradient id="paint4_linear_97_3021" x1="80.4526" y1="168.031" x2="201.443" y2="261.379" gradientUnits="userSpaceOnUse">
<stop stop-color="#E8F2F8"/>
<stop offset="1" stop-color="#CDDFF2"/>
</linearGradient>
<radialGradient id="paint5_radial_97_3021" cx="0" cy="0" r="1" gradientUnits="userSpaceOnUse" gradientTransform="translate(128.377 169.376) rotate(41.0296) scale(53.1395 66.364)">
<stop stop-color="white"/>
<stop offset="1" stop-color="#EDF5F8" stop-opacity="0"/>
</radialGradient>
<linearGradient id="paint6_linear_97_3021" x1="48.5258" y1="128.436" x2="219.61" y2="142.088" gradientUnits="userSpaceOnUse">
<stop stop-color="#F0F6F9"/>
<stop offset="1" stop-color="#CDDFF2"/>
</linearGradient>
<clipPath id="clip0_97_3021">
<rect width="251.267" height="251.267" fill="white" transform="translate(-22 125.633) rotate(-30)"/>
</clipPath>
</defs>
</svg>

<svg xmlns="http://www.w3.org/2000/svg" fill="none" viewBox="0 0 322 283"><g clip-path="url(#clip0_97_3021)" opacity="0.3"><path fill="url(#paint0_linear_97_3021)" d="m77.1 159.09 97.92-56.54 15.48 35.33a28.5 28.5 0 0 0 25.66 17.08l-114.24 65.96a28.5 28.5 0 0 0-1.96-30.77z"/><path fill="url(#paint1_linear_97_3021)" fill-opacity="0.4" d="m77.1 159.09 97.92-56.54 15.48 35.33a28.5 28.5 0 0 0 25.66 17.08l-114.24 65.96a28.5 28.5 0 0 0-1.96-30.77z"/><path fill="url(#paint2_linear_97_3021)" fill-opacity="0.05" d="m77.1 159.09 97.92-56.54 15.48 35.33a28.5 28.5 0 0 0 25.66 17.08l-114.24 65.96a28.5 28.5 0 0 0-1.96-30.77z"/><path fill="url(#paint3_linear_97_3021)" fill-opacity="0.2" d="m77.1 159.09 97.92-56.54 15.48 35.33a28.5 28.5 0 0 0 25.66 17.08l-114.24 65.96a28.5 28.5 0 0 0-1.96-30.77z"/><path fill="url(#paint4_linear_97_3021)" d="M226.68 161.94a9.57 9.57 0 0 0-10.34-7.57l-47.32 5.06a56.5 56.5 0 0 0-39.65 22.9l-28.05 38.45a9.57 9.57 0 0 0 1.39 12.73c10.91 9.86 17.58 17.13 28.91 29.71l13.33 14.8c5.87 6 15.09 7.26 22.39 3.05l.01-.01.02-.01a18.4 18.4 0 0 0 8.03-22.49l-18.68-49.33c-2.23-5.86.01-12.7 5.46-15.85s12.5-1.67 16.46 3.19l33.38 40.85a18.45 18.45 0 0 0 23.5 4.29l.01-.01.02-.01a18.44 18.44 0 0 0 8.54-20.92l-6.14-18.94c-5.23-16.1-8.2-25.51-11.27-39.9"/><path fill="url(#paint5_radial_97_3021)" fill-opacity="0.2" d="M226.68 161.94a9.57 9.57 0 0 0-10.34-7.57l-47.32 5.06a56.5 56.5 0 0 0-39.65 22.9l-28.05 38.45a9.57 9.57 0 0 0 1.39 12.73c10.91 9.86 17.58 17.13 28.91 29.71l13.33 14.8c5.87 6 15.09 7.26 22.39 3.05l.01-.01.02-.01a18.4 18.4 0 0 0 8.03-22.49l-18.68-49.33c-2.23-5.86.01-12.7 5.46-15.85s12.5-1.67 16.46 3.19l33.38 40.85a18.45 18.45 0 0 0 23.5 4.29l.01-.01.02-.01a18.44 18.44 0 0 0 8.54-20.92l-6.14-18.94c-5.23-16.1-8.2-25.51-11.27-39.9"/><path fill="url(#paint6_linear_97_3021)" d="M76.42 99.17c17.02-2.08 36.75-13.47 47.06-27.17a53 53 0 0 1 15.8-14.1 49.5 49.5 0 0 1 19.06-6.3c30.22-3.54 58.68 20.7 64.02 54.29l.87 9.86a9.73 9.73 0 0 1-8.15 10.55l-59.9 9a62.8 62.8 0 0 0-39.79 22.98l-37.75 47.37a9.73 9.73 0 0 1-13.21 1.78l-8.11-5.68c-26.41-21.43-33.17-58.19-15-82.59 8.6-11.56 21.27-18.3 35.1-19.99"/></g><defs><linearGradient id="paint0_linear_97_3021" x1="133.129" x2="157.471" y1="143.058" y2="185.218" gradientUnits="userSpaceOnUse"><stop stop-color="#AAC8E3"/><stop offset="1" stop-color="#C8DBED"/></linearGradient><linearGradient id="paint1_linear_97_3021" x1="92.719" x2="107.679" y1="189.276" y2="180.639" gradientUnits="userSpaceOnUse"><stop stop-color="#F1F7FA"/><stop offset="1" stop-color="#F0F7FA" stop-opacity="0"/></linearGradient><linearGradient id="paint2_linear_97_3021" x1="133.129" x2="140.196" y1="143.058" y2="155.298" gradientUnits="userSpaceOnUse"><stop stop-color="#065099"/><stop offset="1" stop-color="#065099" stop-opacity="0"/></linearGradient><linearGradient id="paint3_linear_97_3021" x1="126.062" x2="143.337" y1="130.818" y2="160.738" gradientUnits="userSpaceOnUse"><stop stop-color="#23578B"/><stop offset="1" stop-color="#23578B" stop-opacity="0"/></linearGradient><linearGradient id="paint4_linear_97_3021" x1="80.4526" x2="201.443" y1="168.031" y2="261.379" gradientUnits="userSpaceOnUse"><stop stop-color="#E8F2F8"/><stop offset="1" stop-color="#CDDFF2"/></linearGradient><linearGradient id="paint6_linear_97_3021" x1="48.5258" x2="219.61" y1="128.436" y2="142.088" gradientUnits="userSpaceOnUse"><stop stop-color="#F0F6F9"/><stop offset="1" stop-color="#CDDFF2"/></linearGradient><radialGradient id="paint5_radial_97_3021" cx="0" cy="0" r="1" gradientTransform="matrix(40.08687 34.88336 -43.56457 50.06305 128.377 169.376)" gradientUnits="userSpaceOnUse"><stop stop-color="#fff"/><stop offset="1" stop-color="#EDF5F8" stop-opacity="0"/></radialGradient><clipPath id="clip0_97_3021"><path fill="#fff" d="m-22 125.63 217.6-125.63 125.64 217.6-217.6 125.64z"/></clipPath></defs></svg>
